; HEADER_BLOCK_START
; generated by OrcaSlicer 1.9.0 on 2024-02-23 at 21:24:49
; total layer number: 19
; filament_density: 1.04
; filament_diameter: 1.75
; max_z_height: 3.80
; HEADER_BLOCK_END

; THUMBNAIL_BLOCK_START

;
; THUMBNAIL_BLOCK_END

; external perimeters extrusion width = 0.40mm
; perimeters extrusion width = 0.40mm
; infill extrusion width = 0.45mm
; solid infill extrusion width = 0.40mm
; top infill extrusion width = 0.40mm
; first layer extrusion width = 0.50mm

; EXECUTABLE_BLOCK_START
M73 P0 R4
;TYPE:Custom
M190 S105
M109 S260
PRINT_START EXTRUDER=260 BED=105
; You can use following code instead if your PRINT_START macro support Chamber and print area bedmesh
; PRINT_START EXTRUDER=260 BED=105 Chamber=0 PRINT_MIN=140.536,109.986 PRINT_MAX=159.464,190.014
G90
G21
M83 ; use relative distances for extrusion
; Filament gcode
M106 S0
;LAYER_CHANGE
;Z:0.2
;HEIGHT:0.2
;BEFORE_LAYER_CHANGE
;0.2
G92 E0

G1 E-.8 F1800
;AFTER_LAYER_CHANGE
;0.2
;_SET_FAN_SPEED_CHANGING_LAYER
SET_VELOCITY_LIMIT ACCEL=500 ACCEL_TO_DECEL=250
SET_VELOCITY_LIMIT SQUARE_CORNER_VELOCITY=9
G1 Z.4 F21000
G1 X142.166 Y112.499
G1 Z.4
G1 Z.2
G1 E.8 F1800
;TYPE:Skirt
;WIDTH:0.5
G1 F3000
G1 X143.049 Y111.616 E.04413
G1 X144.677 Y110.549 E.0688
G1 X146.433 Y110.215 E.06319
G1 X153.567 Y110.215 E.25216
G1 X155.473 Y110.61 E.0688
G1 X156.951 Y111.616 E.06318
G1 X157.834 Y112.499 E.04413
G1 X158.901 Y114.126 E.0688
G1 X159.235 Y115.883 E.0632
G1 X159.235 Y184.117 E2.4118
M73 P1 R4
G1 X158.84 Y186.023 E.0688
G1 X157.834 Y187.501 E.0632
G1 X156.951 Y188.384 E.04413
G1 X155.323 Y189.451 E.0688
G1 X153.567 Y189.785 E.06319
G1 X146.433 Y189.785 E.25216
G1 X144.527 Y189.39 E.0688
G1 X143.049 Y188.384 E.06318
G1 X142.166 Y187.501 E.04413
G1 X141.099 Y185.874 E.0688
G1 X140.765 Y184.117 E.06321
G1 X140.765 Y115.883 E2.4118
M73 P2 R4
G1 X141.16 Y113.977 E.0688
G1 X142.144 Y112.532 E.06178
G1 X142.489 Y112.822 F21000
G1 F3000
G1 X143.372 Y111.939 E.04413
G1 X144.93 Y110.941 E.06539
G1 X146.433 Y110.672 E.05397
G1 X153.567 Y110.672 E.25216
G1 X155.374 Y111.067 E.06539
G1 X156.627 Y111.939 E.05396
G1 X157.51 Y112.822 E.04413
G1 X158.509 Y114.38 E.06539
G1 X158.778 Y115.883 E.05398
G1 X158.778 Y184.117 E2.4118
G1 X158.383 Y185.924 E.06539
G1 X157.511 Y187.178 E.05398
G1 X156.628 Y188.061 E.04413
G1 X155.07 Y189.059 E.06539
G1 X153.567 Y189.328 E.05397
G1 X146.433 Y189.328 E.25216
M73 P3 R4
G1 X144.626 Y188.933 E.06539
G1 X143.373 Y188.061 E.05396
G1 X142.49 Y187.178 E.04413
G1 X141.491 Y185.621 E.06539
G1 X141.222 Y184.117 E.05398
G1 X141.222 Y115.883 E2.4118
G1 X141.617 Y114.076 E.06539
G1 X142.467 Y112.855 E.05256
G1 X142.813 Y113.145 F21000
G1 F3000
G1 X143.696 Y112.263 E.04413
G1 X145.179 Y111.337 E.0618
G1 X146.433 Y111.129 E.04492
G1 X153.567 Y111.129 E.25216
G1 X155.27 Y111.524 E.0618
G1 X156.304 Y112.262 E.04492
G1 X157.187 Y113.145 E.04413
G1 X158.112 Y114.629 E.0618
G1 X158.321 Y115.883 E.04493
G1 X158.321 Y184.117 E2.4118
M73 P4 R4
G1 X157.926 Y185.82 E.0618
G1 X157.187 Y186.855 E.04493
G1 X156.304 Y187.737 E.04413
G1 X154.821 Y188.663 E.0618
G1 X153.567 Y188.871 E.04492
G1 X146.433 Y188.871 E.25216
G1 X144.73 Y188.476 E.0618
G1 X143.696 Y187.738 E.04492
G1 X142.813 Y186.855 E.04413
G1 X141.888 Y185.371 E.0618
G1 X141.679 Y184.117 E.04494
G1 X141.679 Y115.883 E2.4118
M73 P5 R4
G1 X142.074 Y114.18 E.0618
M73 P5 R3
G1 X142.789 Y113.178 E.04352
G1 X143.136 Y113.469 F21000
G1 F3000
G1 X144.019 Y112.586 E.04413
G1 X145.424 Y111.738 E.05799
G1 X146.433 Y111.586 E.03608
G1 X153.567 Y111.586 E.25216
G1 X155.16 Y111.98 E.05799
G1 X155.981 Y112.586 E.03608
G1 X156.864 Y113.469 E.04413
G1 X157.711 Y114.873 E.05799
G1 X157.864 Y115.883 E.03609
G1 X157.864 Y184.117 E2.4118
G1 X157.47 Y185.71 E.05799
M73 P6 R3
G1 X156.864 Y186.531 E.03609
G1 X155.981 Y187.414 E.04413
G1 X154.576 Y188.262 E.05799
G1 X153.567 Y188.414 E.03608
G1 X146.433 Y188.414 E.25216
G1 X144.841 Y188.02 E.05799
G1 X144.019 Y187.414 E.03608
G1 X143.136 Y186.532 E.04413
G1 X142.289 Y185.127 E.05799
G1 X142.136 Y184.117 E.03609
G1 X142.136 Y115.883 E2.4118
G1 X142.53 Y114.29 E.05799
G1 X143.112 Y113.501 E.03467
G1 X143.459 Y113.792 F21000
G1 F3000
G1 X144.342 Y112.909 E.04413
G1 X145.662 Y112.145 E.0539
G1 X146.433 Y112.043 E.02749
G1 X153.567 Y112.043 E.25216
G1 X155.648 Y112.899 E.07954
G1 X156.541 Y113.792 E.04462
G1 X157.305 Y115.112 E.0539
G1 X157.407 Y115.883 E.02749
M73 P7 R3
G1 X157.407 Y184.117 E2.4118
G1 X157.014 Y185.591 E.0539
G1 X156.541 Y186.208 E.02749
G1 X155.658 Y187.091 E.04413
G1 X154.338 Y187.855 E.0539
G1 X153.567 Y187.957 E.02749
G1 X146.433 Y187.957 E.25216
G1 X144.96 Y187.564 E.0539
G1 X144.342 Y187.091 E.02748
G1 X143.459 Y186.208 E.04413
G1 X142.695 Y184.888 E.0539
G1 X142.593 Y184.117 E.0275
G1 X142.593 Y115.883 E2.4118
M73 P8 R3
G1 X142.986 Y114.409 E.0539
G1 X143.435 Y113.824 E.02608
; printing object MGN9_Assembly_Tool.stl id:93893417551984 copy 0
G1 E-.56 F1800
;WIPE_START
G1 F3000
G1 X144.139 Y113.114 E-.24
;WIPE_END
G1 Z.6 F21000
G1 X153.189 Y117.53 Z.6
G1 Z.2
G1 E.8 F1800
;TYPE:Inner wall
;WIDTH:0.692944
G1 F3000
G1 X152.961 Y117.189 E.02066
G1 X152.416 Y116.624 E.03947
G1 X151.912 Y116.269 E.03095
G1 X153.056 Y116.271 E.05748
G1 X153.189 Y116.405 E.00951
G1 X153.189 Y116.5 E.00476
G1 X153.189 Y117.49 E.0498
G1 E-.56 F1800
;WIPE_START
G1 F3000
G1 X152.961 Y117.189 E-.09084
G1 X152.529 Y116.741 E-.14916
;WIPE_END
G1 Z.6 F21000
G1 X146.813 Y117.509 Z.6
G1 Z.2
G1 E.8 F1800
;WIDTH:0.696974
G1 F3000
G1 X146.813 Y116.406 E.0558
G1 X146.955 Y116.263 E.01019
G1 X148.105 Y116.265 E.05816
G1 X147.687 Y116.538 E.02521
G1 X147.122 Y117.083 E.03974
G1 X146.836 Y117.477 E.0246
G1 E-.56 F1800
;WIPE_START
G1 F3000
G1 X146.814 Y116.477 E-.24
;WIPE_END
G1 Z.6 F21000
M73 P9 R3
G1 X146.812 Y182.475 Z.6
G1 Z.2
G1 E.8 F1800
;WIDTH:0.695789
G1 F3000
G1 X147.038 Y182.812 E.0205
G1 X147.584 Y183.377 E.03966
G1 X148.098 Y183.738 E.0317
G1 X146.956 Y183.738 E.05766
G1 X146.812 Y183.594 E.01025
G1 X146.812 Y182.515 E.0545
G1 E-.56 F1800
;WIPE_START
G1 F3000
G1 X147.038 Y182.812 E-.08965
G1 X147.473 Y183.263 E-.15035
;WIPE_END
G1 Z.6 F21000
G1 X151.902 Y183.738 Z.6
G1 Z.2
G1 E.8 F1800
G1 F3000
G1 X151.99 Y183.687 E.00511
G1 X152.609 Y183.204 E.03966
G1 X152.962 Y182.812 E.02661
G1 X153.188 Y182.474 E.02053
G1 X153.188 Y183.594 E.05655
G1 X153.044 Y183.738 E.01025
G1 X151.942 Y183.738 E.05564
G1 E-.56 F1800
;WIPE_START
G1 F3000
G1 X151.99 Y183.687 E-.01669
G1 X152.609 Y183.204 E-.18853
G1 X152.706 Y183.096 E-.03478
;WIPE_END
G1 Z.6 F21000
G1 X146.87 Y181.272 Z.6
G1 Z.2
G1 E.8 F1800
;WIDTH:0.548137
G1 F3000
G1 X146.859 Y181.244 E.00118
;WIDTH:0.569614
G1 X146.817 Y181.1 E.0061
G1 X146.776 Y180.574 E.02145
;WIDTH:0.542001
G1 X146.773 Y180.501 E.00285
;WIDTH:0.539379
G1 X146.773 Y119.499 E2.3419
;WIDTH:0.55688
M73 P10 R3
G1 X146.794 Y119.088 E.01637
G1 X146.863 Y118.833 E.01049
;WIDTH:0.52844
G1 X146.931 Y118.578 E.00991
;WIDTH:0.499999
G1 X147.19 Y117.96 E.02368
G1 X147.571 Y117.41 E.02368
G1 X148.059 Y116.951 E.02368
G1 X148.632 Y116.603 E.02368
;WIDTH:0.530834
G1 X148.943 Y116.477 E.01266
;WIDTH:0.561669
G1 X149.254 Y116.352 E.01346
;WIDTH:0.59237
G1 X149.399 Y116.306 E.00644
G1 X149.918 Y116.265 E.02211
;WIDTH:0.578907
G1 X150.414 Y116.283 E.0206
G1 X150.668 Y116.357 E.01096
;WIDTH:0.539453
G1 X150.922 Y116.431 E.01015
;WIDTH:0.499999
G1 X151.54 Y116.69 E.02368
G1 X152.09 Y117.071 E.02368
G1 X152.549 Y117.559 E.02368
G1 X152.897 Y118.132 E.02368
;WIDTH:0.533235
G1 X153.134 Y118.759 E.02542
;WIDTH:0.569614
G1 X153.183 Y118.9 E.0061
G1 X153.224 Y119.426 E.02145
;WIDTH:0.542001
G1 X153.227 Y119.499 E.00285
;WIDTH:0.539379
G1 X153.227 Y180.501 E2.3419
;WIDTH:0.569614
M73 P11 R3
G1 X153.183 Y181.1 E.02446
G1 X153.071 Y181.415 E.01364
;WIDTH:0.534807
G1 X152.958 Y181.731 E.01274
;WIDTH:0.499999
G1 X152.634 Y182.324 E.02389
G1 X152.207 Y182.822 E.02321
G1 X151.664 Y183.238 E.02418
G1 X151.058 Y183.524 E.02368
;WIDTH:0.53585
G1 X150.736 Y183.619 E.0128
;WIDTH:0.571701
G1 X150.414 Y183.713 E.01373
G1 X149.736 Y183.729 E.0277
;WIDTH:0.582159
G1 X149.585 Y183.718 E.00632
G1 X149.332 Y183.644 E.01102
;WIDTH:0.541079
G1 X149.078 Y183.569 E.01018
;WIDTH:0.499999
G1 X148.46 Y183.31 E.02368
G1 X147.91 Y182.928 E.02368
G1 X147.451 Y182.441 E.02368
G1 X147.103 Y181.868 E.02368
;WIDTH:0.548137
G1 X146.884 Y181.309 E.02346
G1 X147.316 Y181.088 F21000
;TYPE:Outer wall
;WIDTH:0.499999
G1 F3000
G1 X147.25 Y180.501 E.0209
G1 X147.25 Y119.499 E2.15614
G1 X147.269 Y119.189 E.011
G1 X147.378 Y118.673 E.01863
G1 X147.608 Y118.146 E.02031
G1 X147.941 Y117.678 E.02031
G1 X148.365 Y117.29 E.02031
G1 X148.86 Y116.999 E.02031
G1 X149.405 Y116.816 E.02031
G1 X149.969 Y116.752 E.02006
G1 X150.311 Y116.769 E.0121
G1 X150.827 Y116.878 E.01863
G1 X151.354 Y117.108 E.02031
G1 X151.822 Y117.441 E.02031
G1 X152.21 Y117.865 E.02031
G1 X152.501 Y118.36 E.02031
G1 X152.684 Y118.905 E.02031
G1 X152.75 Y119.499 E.02114
G1 X152.75 Y180.501 E2.15614
M73 P12 R3
G1 X152.694 Y181.048 E.01946
G1 X152.523 Y181.59 E.02006
G1 X152.238 Y182.096 E.02054
G1 X151.867 Y182.516 E.01981
G1 X151.395 Y182.869 E.02082
G1 X150.872 Y183.107 E.02031
G1 X150.311 Y183.231 E.02031
G1 X149.736 Y183.236 E.02031
G1 X149.173 Y183.122 E.02031
G1 X148.646 Y182.892 E.02031
G1 X148.178 Y182.559 E.02031
G1 X147.79 Y182.135 E.02031
G1 X147.499 Y181.64 E.02031
G1 X147.327 Y181.126 E.01914
G1 E-.56 F1800
;WIPE_START
G1 F3000
G1 X147.25 Y180.501 E-.15132
G1 X147.25 Y180.131 E-.08868
;WIPE_END
G1 Z.6 F21000
G1 X146.291 Y181.11 Z.6
G1 Z.2
G1 E.8 F1800
;TYPE:Inner wall
;WIDTH:0.569614
G1 F3000
G1 X146.277 Y180.501 E.02482
;WIDTH:0.539379
G1 X146.277 Y119.499 E2.3419
;WIDTH:0.55688
G1 X146.286 Y119.035 E.01848
G1 X146.271 Y118.771 E.01049
;WIDTH:0.52844
G1 X146.257 Y118.507 E.00991
;WIDTH:0.499999
G1 X146.257 Y116.176 E.08241
M73 P13 R3
G1 X146.725 Y115.708 E.0234
G1 X148.631 Y115.711 E.06736
;WIDTH:0.546185
G1 X149.001 Y115.734 E.01441
;WIDTH:0.59237
G1 X149.37 Y115.758 E.01574
G1 X149.891 Y115.745 E.02211
;WIDTH:0.578907
G1 X150.47 Y115.753 E.02404
G1 X150.734 Y115.734 E.01096
;WIDTH:0.539453
G1 X150.998 Y115.714 E.01015
;WIDTH:0.499999
G1 X153.285 Y115.718 E.08085
G1 X153.743 Y116.176 E.02288
G1 X153.743 Y116.5 E.01145
G1 X153.743 Y118.138 E.0579
;WIDTH:0.534807
G1 X153.726 Y118.505 E.01399
;WIDTH:0.569614
G1 X153.708 Y118.873 E.01498
G1 X153.723 Y119.499 E.02553
;WIDTH:0.539379
G1 X153.723 Y180.501 E2.3419
;WIDTH:0.542001
G1 X153.722 Y180.601 E.00386
;WIDTH:0.548268
G1 X153.719 Y181.334 E.02867
G1 X153.743 Y181.855 E.02035
;WIDTH:0.499999
G1 X153.743 Y183.824 E.06962
G1 X153.274 Y184.293 E.02343
G1 X150.998 Y184.293 E.08046
;WIDTH:0.535637
G1 X150.631 Y184.275 E.01401
;WIDTH:0.571274
G1 X150.264 Y184.257 E.01502
;WIDTH:0.582159
G1 X149.529 Y184.252 E.03062
G1 X149.266 Y184.272 E.01102
;WIDTH:0.541079
G1 X149.002 Y184.293 E.01018
;WIDTH:0.499999
G1 X146.726 Y184.293 E.08046
G1 X146.257 Y183.824 E.02343
G1 X146.257 Y181.862 E.06935
;WIDTH:0.534807
G1 X146.274 Y181.495 E.01399
;WIDTH:0.569614
G1 X146.291 Y181.15 E.01406
G1 E-.56 F1800
;WIPE_START
G1 F3000
G1 X146.277 Y180.501 E-.15587
G1 X146.277 Y180.15 E-.08413
;WIPE_END
G1 Z.6 F21000
G1 X153.436 Y184.75 Z.6
G1 Z.2
G1 E.8 F1800
;TYPE:Outer wall
;WIDTH:0.499999
M73 P14 R3
G1 F3000
G1 X146.536 Y184.75 E.24387
G1 X145.8 Y184.014 E.03681
G1 X145.8 Y115.986 E2.40448
G1 X146.536 Y115.25 E.0368
G1 X153.475 Y115.261 E.24525
G1 X154.2 Y115.986 E.03625
G1 X154.2 Y116.5 E.01815
G1 X154.2 Y184.014 E2.38633
M73 P15 R3
G1 X153.472 Y184.741 E.03637
; stop printing object MGN9_Assembly_Tool.stl id:93893417551984 copy 0
;LAYER_CHANGE
;Z:0.4
;HEIGHT:0.2
;BEFORE_LAYER_CHANGE
;0.4
G92 E0

G1 E-.56 F1800
;WIPE_START
G1 F3000
G1 X152.472 Y184.742 E-.24
;WIPE_END
;AFTER_LAYER_CHANGE
;0.4
;_SET_FAN_SPEED_CHANGING_LAYER
SET_VELOCITY_LIMIT ACCEL=5000 ACCEL_TO_DECEL=2500
M140 S105 ; set bed temperature
SET_VELOCITY_LIMIT ACCEL=7000 ACCEL_TO_DECEL=3500 SQUARE_CORNER_VELOCITY=12
G1 Z.6 F21000
G1 X152.472 Y189.785 Z.6
G1 Z.4
G1 E.8 F1800
SET_VELOCITY_LIMIT ACCEL=5000 ACCEL_TO_DECEL=2500 SQUARE_CORNER_VELOCITY=9
;TYPE:Skirt
;WIDTH:0.5
G1 F3000
G1 X146.433 Y189.785 E.21347
G1 X144.527 Y189.39 E.0688
G1 X143.049 Y188.384 E.06318
G1 X142.166 Y187.501 E.04413
G1 X141.099 Y185.874 E.0688
G1 X140.765 Y184.117 E.06321
G1 X140.765 Y115.883 E2.4118
M73 P16 R3
G1 X141.16 Y113.977 E.0688
G1 X142.166 Y112.499 E.0632
G1 X143.049 Y111.616 E.04413
G1 X144.677 Y110.549 E.0688
G1 X146.433 Y110.215 E.06319
G1 X153.567 Y110.215 E.25216
G1 X155.473 Y110.61 E.0688
G1 X156.951 Y111.616 E.06318
G1 X157.834 Y112.499 E.04413
G1 X158.901 Y114.126 E.0688
G1 X159.235 Y115.883 E.0632
G1 X159.235 Y184.117 E2.4118
G1 X158.84 Y186.023 E.0688
G1 X157.834 Y187.501 E.0632
G1 X156.951 Y188.384 E.04413
G1 X155.323 Y189.451 E.0688
G1 X153.567 Y189.785 E.06319
G1 X152.512 Y189.785 E.03728
SET_VELOCITY_LIMIT ACCEL=7000 ACCEL_TO_DECEL=3500 SQUARE_CORNER_VELOCITY=12
G1 X152.512 Y189.328 F21000
SET_VELOCITY_LIMIT ACCEL=5000 ACCEL_TO_DECEL=2500 SQUARE_CORNER_VELOCITY=9
G1 F3000
G1 X146.433 Y189.328 E.21488
M73 P17 R3
G1 X144.626 Y188.933 E.06539
G1 X143.373 Y188.061 E.05396
G1 X142.49 Y187.178 E.04413
G1 X141.491 Y185.621 E.06539
G1 X141.222 Y184.117 E.05398
G1 X141.222 Y115.883 E2.4118
G1 X141.617 Y114.076 E.06539
G1 X142.489 Y112.822 E.05398
G1 X143.372 Y111.939 E.04413
G1 X144.93 Y110.941 E.06539
G1 X146.433 Y110.672 E.05397
G1 X153.567 Y110.672 E.25216
G1 X155.374 Y111.067 E.06539
G1 X156.627 Y111.939 E.05396
G1 X157.51 Y112.822 E.04413
G1 X158.509 Y114.38 E.06539
G1 X158.778 Y115.883 E.05398
G1 X158.778 Y184.117 E2.4118
M73 P18 R3
G1 X158.383 Y185.924 E.06539
G1 X157.511 Y187.178 E.05398
G1 X156.628 Y188.061 E.04413
G1 X155.07 Y189.059 E.06539
G1 X153.567 Y189.328 E.05397
G1 X152.552 Y189.328 E.03587
SET_VELOCITY_LIMIT ACCEL=7000 ACCEL_TO_DECEL=3500 SQUARE_CORNER_VELOCITY=12
G1 X152.552 Y188.871 F21000
SET_VELOCITY_LIMIT ACCEL=5000 ACCEL_TO_DECEL=2500 SQUARE_CORNER_VELOCITY=9
G1 F3000
G1 X146.433 Y188.871 E.21629
G1 X144.73 Y188.476 E.0618
G1 X143.696 Y187.738 E.04492
G1 X142.813 Y186.855 E.04413
G1 X141.888 Y185.371 E.0618
G1 X141.679 Y184.117 E.04494
G1 X141.679 Y115.883 E2.4118
M73 P19 R3
G1 X142.074 Y114.18 E.0618
G1 X142.813 Y113.145 E.04493
G1 X143.696 Y112.263 E.04413
G1 X145.179 Y111.337 E.0618
G1 X146.433 Y111.129 E.04492
G1 X153.567 Y111.129 E.25216
G1 X155.27 Y111.524 E.0618
G1 X156.304 Y112.262 E.04492
G1 X157.187 Y113.145 E.04413
G1 X158.112 Y114.629 E.0618
G1 X158.321 Y115.883 E.04493
G1 X158.321 Y184.117 E2.4118
G1 X157.926 Y185.82 E.0618
G1 X157.187 Y186.855 E.04493
G1 X156.304 Y187.737 E.04413
G1 X154.821 Y188.663 E.0618
G1 X153.567 Y188.871 E.04492
G1 X152.592 Y188.871 E.03445
SET_VELOCITY_LIMIT ACCEL=7000 ACCEL_TO_DECEL=3500 SQUARE_CORNER_VELOCITY=12
G1 X152.592 Y188.414 F21000
SET_VELOCITY_LIMIT ACCEL=5000 ACCEL_TO_DECEL=2500 SQUARE_CORNER_VELOCITY=9
G1 F3000
G1 X146.433 Y188.414 E.21771
G1 X144.841 Y188.02 E.05799
G1 X144.019 Y187.414 E.03608
G1 X143.136 Y186.532 E.04413
G1 X142.289 Y185.127 E.05799
G1 X142.136 Y184.117 E.03609
G1 X142.136 Y115.883 E2.4118
M73 P20 R3
G1 X142.53 Y114.29 E.05799
G1 X143.136 Y113.469 E.03609
G1 X144.019 Y112.586 E.04413
G1 X145.424 Y111.738 E.05799
G1 X146.433 Y111.586 E.03608
G1 X153.567 Y111.586 E.25216
G1 X155.16 Y111.98 E.05799
G1 X155.981 Y112.586 E.03608
G1 X156.864 Y113.469 E.04413
G1 X157.711 Y114.873 E.05799
G1 X157.864 Y115.883 E.03609
G1 X157.864 Y184.117 E2.4118
M73 P21 R3
G1 X157.47 Y185.71 E.05799
G1 X156.864 Y186.531 E.03609
G1 X155.981 Y187.414 E.04413
G1 X154.576 Y188.262 E.05799
G1 X153.567 Y188.414 E.03608
G1 X152.632 Y188.414 E.03304
SET_VELOCITY_LIMIT ACCEL=7000 ACCEL_TO_DECEL=3500 SQUARE_CORNER_VELOCITY=12
G1 X152.632 Y187.957 F21000
SET_VELOCITY_LIMIT ACCEL=5000 ACCEL_TO_DECEL=2500 SQUARE_CORNER_VELOCITY=9
G1 F3000
G1 X146.433 Y187.957 E.21912
G1 X144.96 Y187.564 E.0539
G1 X144.342 Y187.091 E.02748
G1 X143.459 Y186.208 E.04413
G1 X142.695 Y184.888 E.0539
G1 X142.593 Y184.117 E.0275
G1 X142.593 Y115.883 E2.4118
G1 X142.986 Y114.409 E.0539
G1 X143.459 Y113.792 E.02749
