; HEADER_BLOCK_START
; generated by OrcaSlicer 1.9.0 on 2024-02-24 at 19:20:20
; total layer number: 150
; filament_density: 1.04
; filament_diameter: 1.75
; max_z_height: 30.00
; HEADER_BLOCK_END

; THUMBNAIL_BLOCK_START

;
; THUMBNAIL_BLOCK_END

; external perimeters extrusion width = 0.40mm
; perimeters extrusion width = 0.40mm
; infill extrusion width = 0.45mm
; solid infill extrusion width = 0.40mm
; top infill extrusion width = 0.40mm
; first layer extrusion width = 0.50mm

; EXECUTABLE_BLOCK_START
M73 P0 R34
;TYPE:Custom
M104 S0 ; Stops OrcaSlicer from sending temp waits separately
M140 S0
print_start EXTRUDER=260 BED=105 CHAMBER=0
G90
G21
M83 ; use relative distances for extrusion
; Filament gcode
M106 S0
;LAYER_CHANGE
;Z:0.2
;HEIGHT:0.2
;BEFORE_LAYER_CHANGE
;0.2
G92 E0

G1 E-.8 F1800
;AFTER_LAYER_CHANGE
;0.2
;_SET_FAN_SPEED_CHANGING_LAYER
SET_VELOCITY_LIMIT ACCEL=500 ACCEL_TO_DECEL=250
SET_VELOCITY_LIMIT SQUARE_CORNER_VELOCITY=9
G1 Z.4 F21000
G1 X134.466 Y134.466
G1 Z.4
G1 Z.2
G1 E.8 F1800
;TYPE:Skirt
;WIDTH:0.5
G1 F3000
G1 X137.316 Y131.616 E.14246
G1 X138.944 Y130.549 E.0688
G1 X140.7 Y130.215 E.06319
G1 X159.3 Y130.215 E.65743
G1 X161.206 Y130.61 E.0688
G1 X162.684 Y131.616 E.06319
G1 X168.384 Y137.316 E.28493
G1 X169.451 Y138.944 E.0688
G1 X169.785 Y140.7 E.06319
G1 X169.785 Y159.3 E.65743
G1 X169.39 Y161.206 E.0688
G1 X168.384 Y162.684 E.06319
G1 X162.684 Y168.384 E.28492
G1 X161.056 Y169.451 E.0688
G1 X159.3 Y169.785 E.06319
G1 X140.7 Y169.785 E.65743
G1 X138.794 Y169.39 E.0688
G1 X137.316 Y168.384 E.06319
G1 X131.616 Y162.684 E.28492
G1 X130.549 Y161.056 E.0688
G1 X130.215 Y159.3 E.06319
G1 X130.215 Y140.7 E.65743
G1 X130.61 Y138.794 E.0688
G1 X131.616 Y137.316 E.06319
G1 X134.438 Y134.494 E.14105
G1 X134.761 Y134.818 F21000
G1 F3000
G1 X137.639 Y131.939 E.14388
G1 X139.197 Y130.941 E.06539
G1 X140.7 Y130.672 E.05397
G1 X159.3 Y130.672 E.65743
G1 X161.107 Y131.067 E.06539
G1 X162.361 Y131.939 E.05397
G1 X168.061 Y137.639 E.28493
G1 X169.059 Y139.197 E.06539
G1 X169.328 Y140.7 E.05397
G1 X169.328 Y159.3 E.65743
G1 X168.933 Y161.107 E.06539
G1 X168.061 Y162.361 E.05397
G1 X162.361 Y168.061 E.28492
G1 X160.803 Y169.059 E.06539
G1 X159.3 Y169.328 E.05397
G1 X140.7 Y169.328 E.65743
G1 X138.893 Y168.933 E.06539
G1 X137.639 Y168.061 E.05397
G1 X131.939 Y162.361 E.28492
G1 X130.941 Y160.803 E.06539
G1 X130.672 Y159.3 E.05397
G1 X130.672 Y140.7 E.65743
G1 X131.067 Y138.893 E.06539
G1 X131.939 Y137.639 E.05397
G1 X134.733 Y134.846 E.13963
G1 X135.056 Y135.169 F21000
G1 F3000
G1 X137.963 Y132.263 E.14529
G1 X139.446 Y131.337 E.0618
G1 X140.7 Y131.129 E.04493
G1 X159.3 Y131.129 E.65743
G1 X161.003 Y131.524 E.0618
G1 X162.037 Y132.263 E.04492
G1 X167.737 Y137.963 E.28493
G1 X168.663 Y139.446 E.0618
G1 X168.871 Y140.7 E.04493
G1 X168.871 Y159.3 E.65743
G1 X168.476 Y161.003 E.0618
G1 X167.737 Y162.037 E.04493
G1 X162.037 Y167.737 E.28492
G1 X160.554 Y168.663 E.0618
G1 X159.3 Y168.871 E.04493
G1 X140.7 Y168.871 E.65743
G1 X138.997 Y168.476 E.0618
G1 X137.963 Y167.737 E.04493
G1 X132.263 Y162.037 E.28492
G1 X131.337 Y160.554 E.0618
G1 X131.129 Y159.3 E.04493
G1 X131.129 Y140.7 E.65743
G1 X131.524 Y138.997 E.0618
G1 X132.263 Y137.963 E.04493
G1 X135.028 Y135.197 E.13822
G1 X135.351 Y135.521 F21000
G1 F3000
G1 X138.286 Y132.586 E.1467
G1 X139.691 Y131.738 E.05799
G1 X140.7 Y131.586 E.03608
G1 X159.3 Y131.586 E.65743
G1 X160.892 Y131.98 E.05799
G1 X161.714 Y132.586 E.03608
G1 X167.414 Y138.286 E.28493
G1 X168.262 Y139.691 E.05799
G1 X168.414 Y140.7 E.03608
G1 X168.414 Y159.3 E.65743
G1 X168.02 Y160.892 E.05799
G1 X167.414 Y161.714 E.03608
G1 X161.714 Y167.414 E.28492
G1 X160.309 Y168.262 E.05799
G1 X159.3 Y168.414 E.03608
G1 X140.7 Y168.414 E.65743
G1 X139.108 Y168.02 E.05799
G1 X138.286 Y167.414 E.03608
G1 X132.586 Y161.714 E.28492
G1 X131.738 Y160.309 E.05799
G1 X131.586 Y159.3 E.03608
G1 X131.586 Y140.7 E.65743
G1 X131.98 Y139.108 E.05799
G1 X132.586 Y138.286 E.03608
G1 X135.323 Y135.549 E.13681
G1 X135.646 Y135.872 F21000
G1 F3000
G1 X138.609 Y132.909 E.14812
G1 X139.929 Y132.145 E.0539
G1 X140.7 Y132.043 E.02749
G1 X159.3 Y132.043 E.65743
G1 X160.773 Y132.436 E.0539
G1 X161.391 Y132.909 E.02749
G1 X167.091 Y138.609 E.28493
G1 X167.855 Y139.929 E.0539
G1 X167.957 Y140.7 E.02749
G1 X167.957 Y159.3 E.65743
G1 X167.564 Y160.773 E.0539
G1 X167.091 Y161.391 E.02749
G1 X161.391 Y167.091 E.28492
G1 X160.071 Y167.855 E.0539
G1 X159.3 Y167.957 E.02749
G1 X140.7 Y167.957 E.65743
G1 X139.227 Y167.564 E.0539
G1 X138.609 Y167.091 E.02749
G1 X132.909 Y161.391 E.28492
G1 X132.145 Y160.071 E.0539
G1 X132.043 Y159.3 E.02749
G1 X132.043 Y140.7 E.65743
G1 X132.436 Y139.227 E.0539
G1 X132.909 Y138.609 E.02749
G1 X135.618 Y135.9 E.13539
; printing object Voron_Design_Cube_v7.stl id:139817558196480 copy 0
G1 E-.56 F1800
;WIPE_START
G1 F3000
G1 X136.325 Y135.193 E-.24
;WIPE_END
G1 Z.6 F21000
G1 X163.736 Y158.608 Z.6
G1 Z.2
G1 E.8 F1800
;TYPE:Inner wall
;WIDTH:0.499999
G1 F3000
G1 X158.608 Y163.736 E.25632
G1 X141.392 Y163.736 E.60852
G1 X136.264 Y158.608 E.25632
G1 X136.264 Y141.392 E.60852
G1 X141.392 Y136.264 E.25632
G1 X158.608 Y136.264 E.60852
G1 X163.736 Y141.392 E.25632
G1 X163.736 Y142.857 E.05179
G1 X163.736 Y158.568 E.55532
G1 X164.193 Y158.797 F21000
G1 F3000
G1 X158.797 Y164.193 E.2697
G1 X141.203 Y164.193 E.62191
G1 X135.807 Y158.797 E.2697
G1 X135.807 Y141.203 E.62191
M73 P1 R34
G1 X141.203 Y135.807 E.2697
G1 X158.797 Y135.807 E.62191
G1 X164.193 Y141.203 E.2697
G1 X164.193 Y142.857 E.05848
G1 X164.193 Y158.757 E.56201
G1 X164.65 Y158.987 F21000
;TYPE:Outer wall
G1 F3000
G1 X158.987 Y164.65 E.28308
G1 X141.013 Y164.65 E.63529
G1 X135.35 Y158.987 E.28308
G1 X135.35 Y141.013 E.63529
G1 X141.013 Y135.35 E.28308
G1 X158.987 Y135.35 E.63529
G1 X164.65 Y141.013 E.28308
G1 X164.65 Y142.857 E.06517
G1 X164.65 Y158.947 E.5687
G1 E-.56 F1800
;WIPE_START
G1 F3000
G1 X163.945 Y159.656 E-.24
;WIPE_END
G1 Z.6 F21000
G1 X152.155 Y141.357 Z.6
G1 Z.2
G1 E.8 F1800
;TYPE:Inner wall
G1 F3000
G1 X152.938 Y141.586 E.02881
G1 X153.791 Y141.934 E.03257
G1 X154.603 Y142.368 E.03257
G1 X155.704 Y143.154 E.04779
G1 X156.502 Y143.907 E.0388
G1 X157.265 Y144.84 E.04258
G1 X157.774 Y145.642 E.03359
G1 X158.183 Y146.468 E.03257
G1 X158.503 Y147.332 E.03257
G1 X158.733 Y148.224 E.03256
G1 X158.87 Y149.135 E.03256
G1 X158.912 Y150.055 E.03256
G1 X158.88 Y150.762 E.02502
G1 X158.756 Y151.66 E.03204
G1 X158.538 Y152.555 E.03256
G1 X158.229 Y153.423 E.03257
G1 X157.831 Y154.255 E.03257
G1 X157.35 Y155.04 E.03257
G1 X156.791 Y155.772 E.03257
G1 X156.158 Y156.443 E.03257
G1 X155.46 Y157.044 E.03257
G1 X154.704 Y157.57 E.03257
G1 X153.897 Y158.015 E.03257
G1 X152.909 Y158.423 E.03777
G1 X151.747 Y158.738 E.04258
G1 X150.806 Y158.876 E.03359
G1 X149.886 Y158.912 E.03257
G1 X148.966 Y158.853 E.03257
G1 X148.058 Y158.699 E.03257
G1 X147.17 Y158.452 E.03257
G1 X146.313 Y158.114 E.03257
G1 X145.495 Y157.69 E.03257
G1 X144.823 Y157.25 E.02839
G1 X144.011 Y156.601 E.03673
G1 X143.362 Y155.948 E.03257
G1 X142.783 Y155.231 E.03257
G1 X142.211 Y154.328 E.03777
G1 X141.698 Y153.238 E.04258
G1 X141.399 Y152.336 E.03359
G1 X141.204 Y151.435 E.03257
G1 X141.102 Y150.52 E.03257
G1 X141.096 Y149.598 E.03257
G1 X141.185 Y148.681 E.03257
G1 X141.369 Y147.778 E.03257
G1 X141.644 Y146.899 E.03257
G1 X142.077 Y145.922 E.03778
G1 X142.699 Y144.89 E.04258
G1 X143.284 Y144.141 E.03359
G1 X143.924 Y143.479 E.03257
G1 X144.63 Y142.886 E.03257
G1 X145.521 Y142.296 E.03777
G1 X146.601 Y141.763 E.04258
G1 X147.497 Y141.446 E.03359
G1 X148.394 Y141.233 E.03257
G1 X149.307 Y141.114 E.03257
G1 X150.228 Y141.09 E.03257
G1 X151.147 Y141.161 E.03257
G1 X152.053 Y141.327 E.03257
G1 X152.117 Y141.346 E.00234
G1 X152.027 Y141.794 F21000
G1 F3000
G1 X152.807 Y142.023 E.02872
G1 X153.615 Y142.356 E.0309
G1 X154.385 Y142.77 E.0309
G1 X155.436 Y143.524 E.0457
G1 X156.148 Y144.196 E.03463
G1 X156.911 Y145.129 E.04258
G1 X157.386 Y145.883 E.03151
G1 X157.772 Y146.668 E.0309
G1 X158.074 Y147.488 E.0309
G1 X158.29 Y148.335 E.0309
G1 X158.418 Y149.2 E.0309
G1 X158.455 Y150.073 E.03089
G1 X158.424 Y150.739 E.02356
G1 X158.304 Y151.596 E.03058
G1 X158.095 Y152.444 E.0309
G1 X157.799 Y153.267 E.0309
G1 X157.42 Y154.055 E.0309
G1 X156.962 Y154.799 E.0309
G1 X156.429 Y155.492 E.0309
G1 X155.828 Y156.127 E.0309
G1 X155.164 Y156.696 E.0309
G1 X154.446 Y157.193 E.0309
G1 X153.679 Y157.614 E.0309
G1 X152.79 Y157.981 E.03402
G1 X151.627 Y158.297 E.04258
G1 X150.745 Y158.423 E.03151
G1 X149.871 Y158.455 E.0309
G1 X148.999 Y158.397 E.0309
G1 X148.137 Y158.248 E.0309
G1 X147.296 Y158.012 E.0309
G1 X146.483 Y157.69 E.0309
G1 X145.708 Y157.286 E.0309
G1 X145.077 Y156.869 E.02672
G1 X144.303 Y156.249 E.03506
G1 X143.688 Y155.628 E.0309
G1 X143.141 Y154.946 E.0309
G1 X142.624 Y154.134 E.03402
G1 X142.112 Y153.044 E.04258
G1 X141.834 Y152.196 E.03151
G1 X141.651 Y151.342 E.0309
G1 X141.557 Y150.472 E.0309
G1 X141.553 Y149.598 E.0309
G1 X141.64 Y148.728 E.0309
G1 X141.816 Y147.872 E.0309
G1 X142.079 Y147.039 E.0309
G1 X142.468 Y146.158 E.03402
G1 X143.091 Y145.127 E.04258
G1 X143.641 Y144.426 E.03151
G1 X144.251 Y143.799 E.0309
G1 X144.922 Y143.238 E.0309
G1 X145.724 Y142.706 E.03402
G1 X146.804 Y142.172 E.04258
G1 X147.645 Y141.878 E.03151
G1 X148.496 Y141.679 E.0309
G1 X149.363 Y141.568 E.0309
G1 X150.237 Y141.547 E.0309
G1 X151.109 Y141.617 E.0309
G1 X151.968 Y141.776 E.0309
G1 X151.989 Y141.782 E.00076
G1 X151.897 Y142.229 F21000
;TYPE:Outer wall
G1 F3000
G1 X152.676 Y142.461 E.02872
G1 X153.44 Y142.778 E.02923
G1 X154.167 Y143.172 E.02923
G1 X155.167 Y143.894 E.04362
G1 X155.794 Y144.486 E.03047
G1 X156.557 Y145.418 E.04258
G1 X156.998 Y146.124 E.02943
G1 X157.36 Y146.868 E.02923
G1 X157.644 Y147.644 E.02923
G1 X157.847 Y148.446 E.02923
G1 X157.965 Y149.264 E.02923
G1 X157.999 Y150.091 E.02922
G1 X157.967 Y150.715 E.0221
G1 X157.851 Y151.531 E.02912
G1 X157.651 Y152.333 E.02923
G1 X157.37 Y153.111 E.02923
G1 X157.009 Y153.855 E.02923
G1 X156.574 Y154.558 E.02923
G1 X156.068 Y155.212 E.02923
G1 X155.498 Y155.811 E.02923
G1 X154.868 Y156.347 E.02923
G1 X154.187 Y156.816 E.02923
G1 X153.461 Y157.212 E.02923
G1 X152.67 Y157.54 E.03027
G1 X151.507 Y157.856 E.04258
G1 X150.683 Y157.97 E.02943
G1 X149.856 Y157.998 E.02923
G1 X149.031 Y157.941 E.02923
G1 X148.217 Y157.798 E.02923
G1 X147.421 Y157.573 E.02923
G1 X146.653 Y157.266 E.02923
G1 X145.921 Y156.882 E.02923
G1 X145.33 Y156.489 E.02505
G1 X144.594 Y155.897 E.03339
G1 X144.015 Y155.308 E.02923
G1 X143.499 Y154.661 E.02923
G1 X143.038 Y153.939 E.03027
G1 X142.525 Y152.849 E.04258
G1 X142.269 Y152.057 E.02943
G1 X142.098 Y151.248 E.02923
G1 X142.012 Y150.425 E.02923
G1 X142.01 Y149.598 E.02923
G1 X142.095 Y148.776 E.02923
G1 X142.263 Y147.966 E.02923
G1 X142.515 Y147.178 E.02923
G1 X142.859 Y146.394 E.03027
G1 X143.482 Y145.363 E.04258
G1 X143.999 Y144.71 E.02943
G1 X144.577 Y144.119 E.02923
G1 X145.213 Y143.59 E.02923
G1 X145.926 Y143.116 E.03027
G1 X147.006 Y142.582 E.04258
G1 X147.793 Y142.311 E.02943
G1 X148.599 Y142.124 E.02923
G1 X149.419 Y142.022 E.02923
G1 X150.246 Y142.004 E.02923
G1 X151.07 Y142.072 E.02923
G1 X151.858 Y142.221 E.02833
G1 E-.56 F1800
;WIPE_START
G1 F3000
G1 X152.676 Y142.461 E-.20457
G1 X152.812 Y142.518 E-.03543
;WIPE_END
G1 Z.6 F21000
G1 X158.257 Y136.401 Z.6
G1 Z.2
G1 E.8 F1800
;TYPE:Bottom surface
;WIDTH:0.504252
G1 F6300
G1 X163.393 Y141.537 E.2591
G1 X163.393 Y142.189 E.02327
G1 X157.811 Y136.607 E.28164
G1 X157.158 Y136.607 E.02327
G1 X163.393 Y142.842 E.31456
G1 X163.393 Y143.494 E.02327
G1 X156.506 Y136.607 E.34747
G1 X155.853 Y136.607 E.02327
G1 X163.393 Y144.147 E.38039
G1 X163.393 Y144.799 E.02327
G1 X155.201 Y136.607 E.4133
G1 X154.549 Y136.607 E.02327
G1 X163.393 Y145.451 E.44622
G1 X163.393 Y146.104 E.02327
G1 X153.896 Y136.607 E.47913
G1 X153.244 Y136.607 E.02327
G1 X163.393 Y146.756 E.51205
G1 X163.393 Y147.409 E.02327
G1 X152.591 Y136.607 E.54497
G1 X151.939 Y136.607 E.02327
G1 X163.393 Y148.061 E.57788
G1 X163.393 Y148.714 E.02327
G1 X151.286 Y136.607 E.6108
G1 X150.634 Y136.607 E.02327
G1 X163.393 Y149.366 E.64371
G1 X163.393 Y150.018 E.02327
G1 X149.982 Y136.607 E.67663
G1 X149.329 Y136.607 E.02327
G1 X154.844 Y142.121 E.27821
G1 X155.91 Y142.88 E.04671
G1 X156.671 Y143.582 E.03692
G1 X157.638 Y144.773 E.05474
G1 X157.862 Y145.14 E.01532
G1 X163.393 Y150.671 E.27906
G1 X163.393 Y151.323 E.02327
G1 X158.563 Y146.493 E.2437
G1 X158.9 Y147.483 E.03731
G1 X163.393 Y151.976 E.22668
G1 X163.393 Y152.628 E.02327
G1 X159.102 Y148.337 E.2165
G1 X159.204 Y149.091 E.02716
G1 X163.393 Y153.281 E.21135
G1 X163.393 Y153.933 E.02327
G1 X159.244 Y149.784 E.20933
G1 X159.256 Y150.1 E.01131
G1 X159.237 Y150.43 E.01176
G1 X163.393 Y154.585 E.20967
G1 X163.393 Y155.238 E.02327
G1 X159.191 Y151.036 E.212
G1 X159.105 Y151.603 E.02045
G1 X163.393 Y155.89 E.21632
G1 X163.393 Y156.543 E.02327
G1 X158.993 Y152.142 E.222
G1 X158.859 Y152.661 E.0191
G1 X163.393 Y157.195 E.22877
G1 X163.393 Y157.847 E.02327
G1 X158.691 Y153.146 E.23721
G1 X158.514 Y153.621 E.01809
G1 X163.376 Y158.483 E.2453
G1 X163.05 Y158.809 E.01646
G1 X158.303 Y154.062 E.23951
G1 X158.086 Y154.498 E.01737
G1 X162.724 Y159.135 E.23397
G1 X162.398 Y159.462 E.01646
G1 X157.838 Y154.902 E.23003
G1 X157.586 Y155.303 E.01688
G1 X162.071 Y159.788 E.22627
G1 X161.745 Y160.114 E.01646
G1 X157.302 Y155.671 E.22416
G1 X157.013 Y156.035 E.01656
G1 X161.419 Y160.44 E.22228
G1 X161.093 Y160.767 E.01646
G1 X156.697 Y156.37 E.22179
G1 X156.38 Y156.706 E.01646
G1 X160.766 Y161.093 E.22131
G1 X160.44 Y161.419 E.01646
G1 X156.029 Y157.008 E.22256
G1 X155.678 Y157.309 E.01651
G1 X160.114 Y161.745 E.22381
G1 X159.788 Y162.071 E.01646
G1 X155.293 Y157.577 E.22675
G1 X154.909 Y157.845 E.01672
G1 X159.462 Y162.398 E.22968
G1 X159.135 Y162.724 E.01646
G1 X154.49 Y158.079 E.23434
G1 X154.07 Y158.311 E.01712
G1 X158.809 Y163.05 E.23908
G1 X158.483 Y163.376 E.01646
G1 X153.614 Y158.507 E.24565
G1 X153.154 Y158.7 E.01779
G1 X157.847 Y163.393 E.23679
G1 X157.195 Y163.393 E.02327
G1 X152.642 Y158.841 E.22968
G1 X152.131 Y158.981 E.01893
G1 X156.543 Y163.393 E.22257
G1 X155.89 Y163.393 E.02327
M73 P2 R34
G1 X151.609 Y159.112 E.216
G1 X151.035 Y159.191 E.02065
G1 X155.238 Y163.393 E.21202
G1 X154.585 Y163.393 E.02327
G1 X150.425 Y159.233 E.20988
G1 X149.792 Y159.252 E.02261
G1 X153.933 Y163.393 E.20893
G1 X153.28 Y163.393 E.02327
G1 X149.092 Y159.205 E.21131
G1 X148.937 Y159.194 E.00556
G1 X148.326 Y159.091 E.02208
G1 X152.628 Y163.393 E.21702
G1 X151.976 Y163.393 E.02327
G1 X147.474 Y158.891 E.22711
G1 X147.071 Y158.78 E.01491
G1 X146.477 Y158.547 E.02277
G1 X151.529 Y163.599 E.25487
G1 E-.56 F1800
;WIPE_START
G1 F6300
G1 X150.822 Y162.892 E-.24
;WIPE_END
G1 Z.6 F21000
G1 X148.471 Y136.401 Z.6
G1 Z.2
G1 E.8 F1800
G1 F6300
G1 X153.525 Y141.456 E.255
G1 X153.041 Y141.258 E.01866
G1 X152.526 Y141.109 E.01913
G1 X148.024 Y136.607 E.22712
G1 X147.372 Y136.607 E.02327
G1 X151.675 Y140.91 E.21709
G1 X151.181 Y140.82 E.01791
G1 X150.912 Y140.8 E.00961
G1 X146.719 Y136.607 E.21153
G1 X146.067 Y136.607 E.02327
G1 X150.208 Y140.748 E.20892
G1 X149.573 Y140.765 E.02267
G1 X145.415 Y136.607 E.20979
G1 X144.762 Y136.607 E.02327
G1 X148.967 Y140.812 E.21213
G1 X148.388 Y140.885 E.02083
G1 X144.11 Y136.607 E.21582
G1 X143.457 Y136.607 E.02327
G1 X147.856 Y141.006 E.22193
G1 X147.529 Y141.081 E.01198
G1 X147.341 Y141.143 E.00706
G1 X142.805 Y136.607 E.22886
G1 X142.153 Y136.607 E.02328
G1 X146.852 Y141.306 E.23709
G1 X146.62 Y141.384 E.00873
G1 X146.39 Y141.497 E.00913
G1 X141.517 Y136.624 E.24587
G1 X141.191 Y136.95 E.01646
G1 X145.954 Y141.713 E.24029
G1 X145.517 Y141.929 E.01738
G1 X140.865 Y137.276 E.23472
M73 P2 R33
G1 X140.538 Y137.602 E.01646
G1 X145.094 Y142.159 E.22986
G1 X144.706 Y142.422 E.01676
G1 X140.212 Y137.929 E.22671
G1 X139.886 Y138.255 E.01646
G1 X144.326 Y142.695 E.22399
G1 X143.971 Y142.992 E.01652
G1 X139.56 Y138.581 E.22255
G1 X139.233 Y138.907 E.01646
G1 X143.623 Y143.297 E.22148
G1 X143.303 Y143.629 E.01646
G1 X138.907 Y139.234 E.22176
G1 X138.581 Y139.56 E.01646
